src/24x24/places/folder-gruvbox-mix-aqua-torrent.svg

<svg xmlns="http://www.w3.org/2000/svg" width="24" height="24" version="1">
 <rect style="opacity:0.2" width="20" height="12" x="2" y="9.5" rx="1" ry="1"/>
 <path style="fill:#477a5b" d="M 2,17 C 2,17.554 2.446,18 3,18 H 21 C 21.554,18 22,17.554 22,17 V 6 C 22,5.446 21.554,5 21,5 H 12 C 10.5,5 10,3 8.5,3 H 3 C 2.446,3 2,3.446 2,4"/>
 <rect style="opacity:0.2" width="20" height="12" x="2" y="8.5" rx="1" ry="1"/>
 <rect style="fill:#DCE0BB" width="16" height="8" x="4" y="7" rx="1" ry="1"/>
 <rect style="fill:#8bba7f" width="20" height="12" x="2" y="9" rx="1" ry="1"/>
 <path style="opacity:0.1;fill:#DCE0BB" d="M 3,3 C 2.446,3 2,3.446 2,4 V 4.5 C 2,3.946 2.446,3.5 3,3.5 H 8.5 C 10,3.5 10.5,5.5 12,5.5 H 21 C 21.554,5.5 22,5.946 22,6.5 V 6 C 22,5.446 21.554,5 21,5 H 12 C 10.5,5 10,3 8.5,3 Z"/>
 <path style="fill:#39433D" d="M 12.5 11 C 10.567003 11 9 12.567003 9 14.5 C 9 16.432997 10.567003 18 12.5 18 L 22 18 L 22 17 L 12.5 17 C 11.119288 17 10 15.880712 10 14.5 C 10 13.119288 11.119288 12 12.5 12 C 12.844234 12.000394 13.184677 12.070893 13.5 12.208984 L 13.5 11.148438 C 13.175656 11.050498 12.838808 11.001141 12.5 11 z M 12.5 13 C 11.671573 13 11 13.671573 11 14.5 C 11 15.328427 11.671573 16 12.5 16 L 22 16 L 22 15 L 15.5 15 L 13.912109 15 L 12.5 15 C 12.223858 15 12 14.776142 12 14.5 C 12 14.223858 12.223858 14 12.5 14 L 13.908203 14 C 13.701611 13.418655 13.152215 13 12.5 13 z"/>
</svg>

<?xml version="1.0" encoding="UTF-8"?>
<svg width="24" height="24" version="1" xmlns="http://www.w3.org/2000/svg">
 <rect x="2" y="9.5" width="20" height="12" rx="1" ry="1" opacity=".2"/>
 <path d="m2 17c0 0.554 0.446 1 1 1h18c0.554 0 1-0.446 1-1v-11c0-0.554-0.446-1-1-1h-9c-1.5 0-2-2-3.5-2h-5.5c-0.554 0-1 0.446-1 1" fill="#477a5b"/>
 <rect x="2" y="8.5" width="20" height="12" rx="1" ry="1" opacity=".2"/>
 <rect x="4" y="7" width="16" height="8" rx="1" ry="1" fill="#DCE0BB"/>
 <rect x="2" y="9" width="20" height="12" rx="1" ry="1" fill="#8bba7f"/>
 <path d="m3 3c-0.554 0-1 0.446-1 1v0.5c0-0.554 0.446-1 1-1h5.5c1.5 0 2 2 3.5 2h9c0.554 0 1 0.446 1 1v-0.5c0-0.554-0.446-1-1-1h-9c-1.5 0-2-2-3.5-2z" fill="#DCE0BB" opacity=".1"/>
 <path d="m12.5 11c-1.933 0-3.5 1.567-3.5 3.5s1.567 3.5 3.5 3.5h9.5v-1h-9.5c-1.3807 0-2.5-1.1193-2.5-2.5s1.1193-2.5 2.5-2.5c0.34423 3.94e-4 0.68468 0.070893 1 0.20898v-1.0605c-0.32434-0.09794-0.66119-0.1473-1-0.14844zm0 2c-0.82843 0-1.5 0.67157-1.5 1.5s0.67157 1.5 1.5 1.5h9.5v-1h-6.5-1.5879-1.4121c-0.27614 0-0.5-0.22386-0.5-0.5s0.22386-0.5 0.5-0.5h1.4082c-0.20659-0.58134-0.75599-1-1.4082-1z" fill="#39433D"/>
</svg>
